X:1
T:Title
%%score { ( 1 3 6 ) | ( 2 4 5 ) }
L:1/8
Q:1/4=94
M:4/4
K:F
V:1 treble nm="Grand Piano"
V:3 treble 
V:6 treble 
V:2 bass 
V:4 bass 
V:5 bass 
V:1
 [A,C]2 [B,D][B,E] [A,F]2 [CF]2 | [DG]2 [CA][EB] A4 | z4 G4 | [EG]4 z4 | %4
w: A.~H.~Mann * * * *||||
 [G,CE]2 [F,CF][B,G] [A,A]2 F2 | A2 z2 z4 | [G,EG]2 [CFA][B,EB] .[A,Fc]2 [_A,=B,F]2 | F4 z4 |] %8
w: ||||
V:2
 [F,,F,]2 [F,,F,][F,,C,] [F,,C,]2 [A,,F,]2 | [B,,F,]2 [C,E,][C,C] [F,CF]4 | %2
 [F,A,C]2 [F,DF][F,CF] [F,=B,D]2 E,F, | z2 =B,2 z4 | C,B,,A,,[G,,E,] [F,,F,]2 [F,A,C]2 | %5
 .[F,C]2 z2 z4 | C,B,,A,,G,, z C ^C,2 | z2 G,2 z4 |] %8
V:3
 x8 | x8 | c2 BA z2 C[CFA] | .C2 z [DF] [CE]4 | x8 | z _E,B[_Ec] [Dd]4 | x8 | %7
 [A,C]2 z E [F,A,F]4 |] %8
V:4
 x8 | x8 | x8 | G,4 z4 | x8 | F2- [D,B,F][C,A,] [B,,B,]4 | z4 F,,2 z2 | C,4 z4 |] %8
V:5
 x8 | x8 | x8 | z =B,/A,/ z G,, C,4 | x8 | x8 | x8 | z2 z C, F,,4 |] %8
V:6
 x8 | x8 | x8 | x8 | x8 | x8 | x8 | z2 B,2 z4 |] %8

